src/assets/svg/th7.svg

<svg width="30" height="29" viewBox="0 0 30 29" fill="none" xmlns="http://www.w3.org/2000/svg">
<path d="M2.4712 7.54078L14.7132 0.57527L26.9553 7.54078V21.4592L14.7132 28.4247L2.4712 21.4592V7.54078Z" fill="url(#paint0_linear_6591_41761)" stroke="url(#paint1_linear_6591_41761)"/>
<path d="M19.6566 12.44L15.2406 20.04H12.2166L16.5686 12.44H10.5366L10.7606 10.92H19.8646L19.6566 12.44Z" fill="white"/>
<defs>
<linearGradient id="paint0_linear_6591_41761" x1="7.25" y1="3.83824" x2="22.1765" y2="26.8676" gradientUnits="userSpaceOnUse">
<stop stop-color="#D0B4FF"/>
<stop offset="0.848958" stop-color="#6633BA"/>
</linearGradient>
<linearGradient id="paint1_linear_6591_41761" x1="5.82399" y1="7.38182" x2="27.9311" y2="22.1149" gradientUnits="userSpaceOnUse">
<stop stop-color="#A400FF"/>
<stop offset="1" stop-color="#209EFF"/>
<stop offset="1" stop-color="#6BBCFB"/>
</linearGradient>
</defs>
</svg>

<svg width="30" height="29" fill="none" xmlns="http://www.w3.org/2000/svg"><path d="M2.471 7.54 14.713.576l12.242 6.966v13.918l-12.242 6.966-12.242-6.966z" fill="url(#prefix__a)" stroke="url(#prefix__b)"/><path d="m19.657 12.44-4.416 7.6h-3.024l4.352-7.6h-6.032l.224-1.52h9.104z" fill="#fff"/><defs><linearGradient id="prefix__a" x1="7.25" y1="3.838" x2="22.177" y2="26.868" gradientUnits="userSpaceOnUse"><stop stop-color="#D0B4FF"/><stop offset=".849" stop-color="#6633BA"/></linearGradient><linearGradient id="prefix__b" x1="5.824" y1="7.382" x2="27.931" y2="22.115" gradientUnits="userSpaceOnUse"><stop stop-color="#A400FF"/><stop offset="1" stop-color="#209EFF"/><stop offset="1" stop-color="#6BBCFB"/></linearGradient></defs></svg>
